images/5730.svg

<?xml version="1.0" encoding="UTF-8"?>
<svg xmlns="http://www.w3.org/2000/svg" xmlns:xlink="http://www.w3.org/1999/xlink" width="300pt" height="300pt" viewBox="0 0 300 300" version="1.1">
<defs>
<g>
<symbol overflow="visible" id="glyph0-0">
<path style="stroke:none;" d="M 0.453125 1.59375 L 0.453125 -6.34375 L 4.953125 -6.34375 L 4.953125 1.59375 Z M 0.953125 1.09375 L 4.453125 1.09375 L 4.453125 -5.84375 L 0.953125 -5.84375 Z M 0.953125 1.09375 "/>
</symbol>
<symbol overflow="visible" id="glyph0-1">
<path style="stroke:none;" d="M 0.890625 -6.5625 L 2.078125 -6.5625 L 4.984375 -1.078125 L 4.984375 -6.5625 L 5.84375 -6.5625 L 5.84375 0 L 4.65625 0 L 1.75 -5.484375 L 1.75 0 L 0.890625 0 Z M 0.890625 -6.5625 "/>
</symbol>
<symbol overflow="visible" id="glyph0-2">
<path style="stroke:none;" d="M 0.890625 -6.5625 L 1.765625 -6.5625 L 1.765625 -3.875 L 5 -3.875 L 5 -6.5625 L 5.890625 -6.5625 L 5.890625 0 L 5 0 L 5 -3.125 L 1.765625 -3.125 L 1.765625 0 L 0.890625 0 Z M 0.890625 -6.5625 "/>
</symbol>
<symbol overflow="visible" id="glyph0-3">
<path style="stroke:none;" d="M 3.546875 -5.953125 C 2.898438 -5.953125 2.382812 -5.710938 2 -5.234375 C 1.625 -4.753906 1.4375 -4.101562 1.4375 -3.28125 C 1.4375 -2.445312 1.625 -1.789062 2 -1.3125 C 2.382812 -0.832031 2.898438 -0.59375 3.546875 -0.59375 C 4.191406 -0.59375 4.703125 -0.832031 5.078125 -1.3125 C 5.453125 -1.789062 5.640625 -2.445312 5.640625 -3.28125 C 5.640625 -4.101562 5.453125 -4.753906 5.078125 -5.234375 C 4.703125 -5.710938 4.191406 -5.953125 3.546875 -5.953125 Z M 3.546875 -6.6875 C 4.460938 -6.6875 5.195312 -6.375 5.75 -5.75 C 6.300781 -5.132812 6.578125 -4.3125 6.578125 -3.28125 C 6.578125 -2.238281 6.300781 -1.410156 5.75 -0.796875 C 5.195312 -0.179688 4.460938 0.125 3.546875 0.125 C 2.617188 0.125 1.878906 -0.179688 1.328125 -0.796875 C 0.773438 -1.410156 0.5 -2.238281 0.5 -3.28125 C 0.5 -4.3125 0.773438 -5.132812 1.328125 -5.75 C 1.878906 -6.375 2.617188 -6.6875 3.546875 -6.6875 Z M 3.546875 -6.6875 "/>
</symbol>
</g>
</defs>
<g id="surface47281">
<rect x="0" y="0" width="300" height="300" style="fill:rgb(100%,100%,100%);fill-opacity:1;stroke:none;"/>
<path style="fill:none;stroke-width:1.2;stroke-linecap:butt;stroke-linejoin:miter;stroke:rgb(0%,0%,0%);stroke-opacity:1;stroke-miterlimit:10;" d="M 116.898438 193.207031 L 130.519531 180.863281 "/>
<path style="fill:none;stroke-width:1.2;stroke-linecap:butt;stroke-linejoin:miter;stroke:rgb(0%,0%,0%);stroke-opacity:1;stroke-miterlimit:10;" d="M 130.519531 180.863281 L 126.636719 162.894531 "/>
<path style="fill:none;stroke-width:1.2;stroke-linecap:butt;stroke-linejoin:miter;stroke:rgb(0%,0%,0%);stroke-opacity:1;stroke-miterlimit:10;" d="M 134.359375 178.152344 L 131.253906 163.777344 "/>
<path style="fill:none;stroke-width:1.2;stroke-linecap:butt;stroke-linejoin:miter;stroke:rgb(0%,0%,0%);stroke-opacity:1;stroke-miterlimit:10;" d="M 148.019531 186.484375 L 130.519531 180.863281 "/>
<path style="fill:none;stroke-width:1.2;stroke-linecap:butt;stroke-linejoin:miter;stroke:rgb(0%,0%,0%);stroke-opacity:1;stroke-miterlimit:10;" d="M 126.636719 162.894531 L 140.257812 150.546875 "/>
<path style="fill:none;stroke-width:1.2;stroke-linecap:butt;stroke-linejoin:miter;stroke:rgb(0%,0%,0%);stroke-opacity:1;stroke-miterlimit:10;" d="M 126.636719 162.894531 L 117.886719 160.082031 "/>
<path style="fill:none;stroke-width:1.2;stroke-linecap:butt;stroke-linejoin:miter;stroke:rgb(0%,0%,100%);stroke-opacity:1;stroke-miterlimit:10;" d="M 117.886719 160.082031 L 109.136719 157.269531 "/>
<path style="fill:none;stroke-width:1.2;stroke-linecap:butt;stroke-linejoin:miter;stroke:rgb(0%,0%,0%);stroke-opacity:1;stroke-miterlimit:10;" d="M 140.257812 150.546875 L 157.761719 156.171875 "/>
<path style="fill:none;stroke-width:1.2;stroke-linecap:butt;stroke-linejoin:miter;stroke:rgb(0%,0%,0%);stroke-opacity:1;stroke-miterlimit:10;" d="M 140.6875 155.230469 L 154.6875 159.726562 "/>
<path style="fill:none;stroke-width:1.2;stroke-linecap:butt;stroke-linejoin:miter;stroke:rgb(0%,0%,0%);stroke-opacity:1;stroke-miterlimit:10;" d="M 157.761719 156.171875 L 161.640625 174.140625 "/>
<path style="fill:none;stroke-width:1.2;stroke-linecap:butt;stroke-linejoin:miter;stroke:rgb(0%,0%,0%);stroke-opacity:1;stroke-miterlimit:10;" d="M 157.761719 156.171875 L 164.570312 150 "/>
<path style="fill:none;stroke-width:1.2;stroke-linecap:butt;stroke-linejoin:miter;stroke:rgb(0%,0%,100%);stroke-opacity:1;stroke-miterlimit:10;" d="M 164.570312 150 L 171.382812 143.828125 "/>
<path style="fill:none;stroke-width:1.2;stroke-linecap:butt;stroke-linejoin:miter;stroke:rgb(0%,0%,0%);stroke-opacity:1;stroke-miterlimit:10;" d="M 161.640625 174.140625 L 148.019531 186.484375 "/>
<path style="fill:none;stroke-width:1.2;stroke-linecap:butt;stroke-linejoin:miter;stroke:rgb(0%,0%,0%);stroke-opacity:1;stroke-miterlimit:10;" d="M 157.375 172.171875 L 146.476562 182.046875 "/>
<path style="fill:none;stroke-width:1.2;stroke-linecap:butt;stroke-linejoin:miter;stroke:rgb(0%,0%,100%);stroke-opacity:1;stroke-miterlimit:10;" d="M 171.382812 143.828125 L 180.132812 146.640625 "/>
<path style="fill:none;stroke-width:1.2;stroke-linecap:butt;stroke-linejoin:miter;stroke:rgb(0%,0%,0%);stroke-opacity:1;stroke-miterlimit:10;" d="M 180.132812 146.640625 L 188.882812 149.453125 "/>
<path style=" stroke:none;fill-rule:nonzero;fill:rgb(100%,100%,100%);fill-opacity:1;" d="M 164.382812 138.328125 L 178.382812 138.328125 L 178.382812 149.328125 L 164.382812 149.328125 Z M 164.382812 138.328125 "/>
<g style="fill:rgb(0%,0%,100%);fill-opacity:1;">
  <use xlink:href="#glyph0-1" x="164.382812" y="146.991211"/>
  <use xlink:href="#glyph0-2" x="171.360352" y="146.991211"/>
</g>
<path style="fill:none;stroke-width:1.2;stroke-linecap:butt;stroke-linejoin:miter;stroke:rgb(0%,0%,0%);stroke-opacity:1;stroke-miterlimit:10;" d="M 186.769531 149.90625 L 188.710938 158.890625 "/>
<path style="fill:none;stroke-width:1.2;stroke-linecap:butt;stroke-linejoin:miter;stroke:rgb(100%,0%,0%);stroke-opacity:1;stroke-miterlimit:10;" d="M 188.710938 158.890625 L 190.648438 167.875 "/>
<path style="fill:none;stroke-width:1.2;stroke-linecap:butt;stroke-linejoin:miter;stroke:rgb(0%,0%,0%);stroke-opacity:1;stroke-miterlimit:10;" d="M 190.996094 148.996094 L 192.9375 157.980469 "/>
<path style="fill:none;stroke-width:1.2;stroke-linecap:butt;stroke-linejoin:miter;stroke:rgb(100%,0%,0%);stroke-opacity:1;stroke-miterlimit:10;" d="M 192.9375 157.980469 L 194.878906 166.964844 "/>
<path style="fill:none;stroke-width:1.2;stroke-linecap:butt;stroke-linejoin:miter;stroke:rgb(0%,0%,0%);stroke-opacity:1;stroke-miterlimit:10;" d="M 188.882812 149.453125 L 202.503906 137.105469 "/>
<path style=" stroke:none;fill-rule:nonzero;fill:rgb(100%,100%,100%);fill-opacity:1;" d="M 188.765625 161.921875 L 196.765625 161.921875 L 196.765625 172.921875 L 188.765625 172.921875 Z M 188.765625 161.921875 "/>
<g style="fill:rgb(100%,0%,0%);fill-opacity:1;">
  <use xlink:href="#glyph0-3" x="188.765625" y="170.584961"/>
</g>
<path style="fill:none;stroke-width:1.2;stroke-linecap:butt;stroke-linejoin:miter;stroke:rgb(0%,0%,0%);stroke-opacity:1;stroke-miterlimit:10;" d="M 202.503906 137.105469 L 220.007812 142.730469 "/>
<path style="fill:none;stroke-width:1.2;stroke-linecap:butt;stroke-linejoin:miter;stroke:rgb(0%,0%,0%);stroke-opacity:1;stroke-miterlimit:10;" d="M 205.578125 133.550781 L 219.578125 138.050781 "/>
<path style="fill:none;stroke-width:1.2;stroke-linecap:butt;stroke-linejoin:miter;stroke:rgb(0%,0%,0%);stroke-opacity:1;stroke-miterlimit:10;" d="M 198.625 119.136719 L 202.503906 137.105469 "/>
<path style="fill:none;stroke-width:1.2;stroke-linecap:butt;stroke-linejoin:miter;stroke:rgb(0%,0%,0%);stroke-opacity:1;stroke-miterlimit:10;" d="M 220.007812 142.730469 L 233.628906 130.386719 "/>
<path style="fill:none;stroke-width:1.2;stroke-linecap:butt;stroke-linejoin:miter;stroke:rgb(0%,0%,0%);stroke-opacity:1;stroke-miterlimit:10;" d="M 233.628906 130.386719 L 229.746094 112.417969 "/>
<path style="fill:none;stroke-width:1.2;stroke-linecap:butt;stroke-linejoin:miter;stroke:rgb(0%,0%,0%);stroke-opacity:1;stroke-miterlimit:10;" d="M 229.011719 129.5 L 225.90625 115.125 "/>
<path style="fill:none;stroke-width:1.2;stroke-linecap:butt;stroke-linejoin:miter;stroke:rgb(0%,0%,0%);stroke-opacity:1;stroke-miterlimit:10;" d="M 233.628906 130.386719 L 242.378906 133.199219 "/>
<path style="fill:none;stroke-width:1.2;stroke-linecap:butt;stroke-linejoin:miter;stroke:rgb(0%,0%,100%);stroke-opacity:1;stroke-miterlimit:10;" d="M 242.378906 133.199219 L 251.128906 136.007812 "/>
<path style="fill:none;stroke-width:1.2;stroke-linecap:butt;stroke-linejoin:miter;stroke:rgb(0%,0%,0%);stroke-opacity:1;stroke-miterlimit:10;" d="M 229.746094 112.417969 L 212.246094 106.792969 "/>
<path style="fill:none;stroke-width:1.2;stroke-linecap:butt;stroke-linejoin:miter;stroke:rgb(0%,0%,0%);stroke-opacity:1;stroke-miterlimit:10;" d="M 212.246094 106.792969 L 198.625 119.136719 "/>
<path style="fill:none;stroke-width:1.2;stroke-linecap:butt;stroke-linejoin:miter;stroke:rgb(0%,0%,0%);stroke-opacity:1;stroke-miterlimit:10;" d="M 213.789062 111.230469 L 202.890625 121.109375 "/>
<path style="fill:none;stroke-width:1.2;stroke-linecap:butt;stroke-linejoin:miter;stroke:rgb(0%,0%,100%);stroke-opacity:1;stroke-miterlimit:10;" d="M 251.128906 136.007812 L 253.070312 144.992188 "/>
<path style="fill:none;stroke-width:1.2;stroke-linecap:butt;stroke-linejoin:miter;stroke:rgb(0%,0%,0%);stroke-opacity:1;stroke-miterlimit:10;" d="M 253.070312 144.992188 L 255.007812 153.976562 "/>
<path style="fill:none;stroke-width:1.2;stroke-linecap:butt;stroke-linejoin:miter;stroke:rgb(0%,0%,100%);stroke-opacity:1;stroke-miterlimit:10;" d="M 251.128906 136.007812 L 257.9375 129.835938 "/>
<path style="fill:none;stroke-width:1.2;stroke-linecap:butt;stroke-linejoin:miter;stroke:rgb(0%,0%,0%);stroke-opacity:1;stroke-miterlimit:10;" d="M 257.9375 129.835938 L 264.75 123.664062 "/>
<path style=" stroke:none;fill-rule:nonzero;fill:rgb(100%,100%,100%);fill-opacity:1;" d="M 248.128906 130.507812 L 255.128906 130.507812 L 255.128906 141.507812 L 248.128906 141.507812 Z M 248.128906 130.507812 "/>
<g style="fill:rgb(0%,0%,100%);fill-opacity:1;">
  <use xlink:href="#glyph0-1" x="248.128906" y="139.170898"/>
</g>
<path style="fill:none;stroke-width:1.2;stroke-linecap:butt;stroke-linejoin:miter;stroke:rgb(0%,0%,100%);stroke-opacity:1;stroke-miterlimit:10;" d="M 109.136719 157.269531 L 107.195312 148.285156 "/>
<path style="fill:none;stroke-width:1.2;stroke-linecap:butt;stroke-linejoin:miter;stroke:rgb(0%,0%,0%);stroke-opacity:1;stroke-miterlimit:10;" d="M 107.195312 148.285156 L 105.257812 139.300781 "/>
<path style=" stroke:none;fill-rule:nonzero;fill:rgb(100%,100%,100%);fill-opacity:1;" d="M 102.136719 151.769531 L 116.136719 151.769531 L 116.136719 162.769531 L 102.136719 162.769531 Z M 102.136719 151.769531 "/>
<g style="fill:rgb(0%,0%,100%);fill-opacity:1;">
  <use xlink:href="#glyph0-1" x="102.136719" y="160.432617"/>
  <use xlink:href="#glyph0-2" x="109.114258" y="160.432617"/>
</g>
<path style="fill:none;stroke-width:1.2;stroke-linecap:butt;stroke-linejoin:miter;stroke:rgb(0%,0%,0%);stroke-opacity:1;stroke-miterlimit:10;" d="M 106.707031 140.902344 L 113.519531 134.730469 "/>
<path style="fill:none;stroke-width:1.2;stroke-linecap:butt;stroke-linejoin:miter;stroke:rgb(100%,0%,0%);stroke-opacity:1;stroke-miterlimit:10;" d="M 113.519531 134.730469 L 120.328125 128.558594 "/>
<path style="fill:none;stroke-width:1.2;stroke-linecap:butt;stroke-linejoin:miter;stroke:rgb(0%,0%,0%);stroke-opacity:1;stroke-miterlimit:10;" d="M 103.804688 137.699219 L 110.613281 131.527344 "/>
<path style="fill:none;stroke-width:1.2;stroke-linecap:butt;stroke-linejoin:miter;stroke:rgb(100%,0%,0%);stroke-opacity:1;stroke-miterlimit:10;" d="M 110.613281 131.527344 L 117.425781 125.355469 "/>
<path style="fill:none;stroke-width:1.2;stroke-linecap:butt;stroke-linejoin:miter;stroke:rgb(0%,0%,0%);stroke-opacity:1;stroke-miterlimit:10;" d="M 105.257812 139.300781 L 87.753906 133.675781 "/>
<path style=" stroke:none;fill-rule:nonzero;fill:rgb(100%,100%,100%);fill-opacity:1;" d="M 114.878906 121.457031 L 122.878906 121.457031 L 122.878906 132.457031 L 114.878906 132.457031 Z M 114.878906 121.457031 "/>
<g style="fill:rgb(100%,0%,0%);fill-opacity:1;">
  <use xlink:href="#glyph0-3" x="114.878906" y="130.120117"/>
</g>
<path style="fill:none;stroke-width:1.2;stroke-linecap:butt;stroke-linejoin:miter;stroke:rgb(0%,0%,0%);stroke-opacity:1;stroke-miterlimit:10;" d="M 87.753906 133.675781 L 83.875 115.707031 "/>
<path style="fill:none;stroke-width:1.2;stroke-linecap:butt;stroke-linejoin:miter;stroke:rgb(0%,0%,0%);stroke-opacity:1;stroke-miterlimit:10;" d="M 83.136719 132.792969 L 80.035156 118.417969 "/>
<path style="fill:none;stroke-width:1.2;stroke-linecap:butt;stroke-linejoin:miter;stroke:rgb(0%,0%,0%);stroke-opacity:1;stroke-miterlimit:10;" d="M 74.132812 146.023438 L 87.753906 133.675781 "/>
<path style="fill:none;stroke-width:1.2;stroke-linecap:butt;stroke-linejoin:miter;stroke:rgb(0%,0%,0%);stroke-opacity:1;stroke-miterlimit:10;" d="M 83.875 115.707031 L 66.371094 110.085938 "/>
<path style="fill:none;stroke-width:1.2;stroke-linecap:butt;stroke-linejoin:miter;stroke:rgb(0%,0%,0%);stroke-opacity:1;stroke-miterlimit:10;" d="M 66.371094 110.085938 L 52.75 122.429688 "/>
<path style="fill:none;stroke-width:1.2;stroke-linecap:butt;stroke-linejoin:miter;stroke:rgb(0%,0%,0%);stroke-opacity:1;stroke-miterlimit:10;" d="M 67.914062 114.523438 L 57.019531 124.398438 "/>
<path style="fill:none;stroke-width:1.2;stroke-linecap:butt;stroke-linejoin:miter;stroke:rgb(0%,0%,0%);stroke-opacity:1;stroke-miterlimit:10;" d="M 52.75 122.429688 L 56.632812 140.398438 "/>
<path style="fill:none;stroke-width:1.2;stroke-linecap:butt;stroke-linejoin:miter;stroke:rgb(0%,0%,0%);stroke-opacity:1;stroke-miterlimit:10;" d="M 52.75 122.429688 L 44 119.617188 "/>
<path style="fill:none;stroke-width:1.2;stroke-linecap:butt;stroke-linejoin:miter;stroke:rgb(100%,0%,0%);stroke-opacity:1;stroke-miterlimit:10;" d="M 44 119.617188 L 35.25 116.804688 "/>
<path style="fill:none;stroke-width:1.2;stroke-linecap:butt;stroke-linejoin:miter;stroke:rgb(0%,0%,0%);stroke-opacity:1;stroke-miterlimit:10;" d="M 56.632812 140.398438 L 74.132812 146.023438 "/>
<path style="fill:none;stroke-width:1.2;stroke-linecap:butt;stroke-linejoin:miter;stroke:rgb(0%,0%,0%);stroke-opacity:1;stroke-miterlimit:10;" d="M 59.707031 136.84375 L 73.707031 141.339844 "/>
<path style=" stroke:none;fill-rule:nonzero;fill:rgb(100%,100%,100%);fill-opacity:1;" d="M 20.25 111.304688 L 35.25 111.304688 L 35.25 122.304688 L 20.25 122.304688 Z M 20.25 111.304688 "/>
<g style="fill:rgb(100%,0%,0%);fill-opacity:1;">
  <use xlink:href="#glyph0-2" x="20.25" y="119.967773"/>
  <use xlink:href="#glyph0-3" x="27.264648" y="119.967773"/>
</g>
</g>
</svg>

<svg xmlns="http://www.w3.org/2000/svg" xmlns:xlink="http://www.w3.org/1999/xlink" width="300pt" height="300pt" viewBox="0 0 300 300"><defs><symbol overflow="visible"><path d="M.453 1.594v-7.938h4.5v7.938zm.5-.5h3.5v-6.938h-3.5zm0 0"/></symbol><symbol overflow="visible" id="a"><path d="M.89-6.563H2.08l2.906 5.485v-5.484h.86V0H4.656L1.75-5.484V0H.89zm0 0"/></symbol><symbol overflow="visible" id="b"><path d="M.89-6.563h.876v2.688H5v-2.688h.89V0H5v-3.125H1.766V0H.89zm0 0"/></symbol><symbol overflow="visible" id="c"><path d="M3.547-5.953c-.65 0-1.164.242-1.547.72-.375.48-.563 1.13-.563 1.952 0 .835.188 1.49.563 1.967.383.48.898.72 1.547.72.644 0 1.156-.24 1.53-.72.376-.476.564-1.132.564-1.968 0-.822-.187-1.474-.562-1.954-.375-.477-.887-.72-1.53-.72zm0-.734c.914 0 1.648.312 2.203.937.55.617.828 1.438.828 2.47 0 1.042-.277 1.87-.828 2.483-.555.617-1.29.922-2.203.922-.93 0-1.668-.305-2.22-.922C.774-1.41.5-2.237.5-3.28c0-1.033.273-1.853.828-2.47.55-.625 1.29-.938 2.22-.938zm0 0"/></symbol></defs><g><path fill="#fff" d="M0 0h300v300H0z"/><path d="M116.898 193.207l13.622-12.344M130.52 180.863l-3.883-17.968M134.36 178.152l-3.106-14.375M148.02 186.484l-17.5-5.62M126.637 162.895l13.62-12.348M126.637 162.895l-8.75-2.813" stroke-width="1.2" stroke="#000" stroke-miterlimit="10" fill="none"/><path d="M117.887 160.082l-8.75-2.812" stroke-width="1.2" stroke="#00f" stroke-miterlimit="10" fill="none"/><path d="M140.258 150.547l17.504 5.625M140.688 155.23l14 4.497M157.762 156.172l3.88 17.97M157.762 156.172L164.57 150" stroke-width="1.2" stroke="#000" stroke-miterlimit="10" fill="none"/><path d="M164.57 150l6.813-6.172" stroke-width="1.2" stroke="#00f" stroke-miterlimit="10" fill="none"/><path d="M161.64 174.14l-13.62 12.344M157.375 172.172l-10.898 9.875" stroke-width="1.2" stroke="#000" stroke-miterlimit="10" fill="none"/><path d="M171.383 143.828l8.75 2.813" stroke-width="1.2" stroke="#00f" stroke-miterlimit="10" fill="none"/><path d="M180.133 146.64l8.75 2.813" stroke-width="1.2" stroke="#000" stroke-miterlimit="10" fill="none"/><path d="M164.383 138.328h14v11h-14zm0 0" fill="#fff"/><g fill="#00f"><use xlink:href="#a" x="164.383" y="146.991"/><use xlink:href="#b" x="171.36" y="146.991"/></g><path d="M186.77 149.906l1.94 8.985" stroke-width="1.2" stroke="#000" stroke-miterlimit="10" fill="none"/><path d="M188.71 158.89l1.938 8.985" stroke-width="1.2" stroke="#f00" stroke-miterlimit="10" fill="none"/><path d="M190.996 148.996l1.94 8.984" stroke-width="1.2" stroke="#000" stroke-miterlimit="10" fill="none"/><path d="M192.938 157.98l1.94 8.985" stroke-width="1.2" stroke="#f00" stroke-miterlimit="10" fill="none"/><path d="M188.883 149.453l13.62-12.348" stroke-width="1.2" stroke="#000" stroke-miterlimit="10" fill="none"/><path d="M188.766 161.922h8v11h-8zm0 0" fill="#fff"/><use xlink:href="#c" x="188.766" y="170.585" fill="#f00"/><path d="M202.504 137.105l17.504 5.625M205.578 133.55l14 4.5M198.625 119.137l3.88 17.968M220.008 142.73l13.62-12.343M233.63 130.387l-3.884-17.97M229.012 129.5l-3.106-14.375M233.63 130.387l8.75 2.812" stroke-width="1.2" stroke="#000" stroke-miterlimit="10" fill="none"/><path d="M242.38 133.2l8.75 2.808" stroke-width="1.2" stroke="#00f" stroke-miterlimit="10" fill="none"/><path d="M229.746 112.418l-17.5-5.625M212.246 106.793l-13.62 12.344M213.79 111.23l-10.9 9.88" stroke-width="1.2" stroke="#000" stroke-miterlimit="10" fill="none"/><path d="M251.13 136.008l1.94 8.984" stroke-width="1.2" stroke="#00f" stroke-miterlimit="10" fill="none"/><path d="M253.07 144.992l1.938 8.985" stroke-width="1.2" stroke="#000" stroke-miterlimit="10" fill="none"/><path d="M251.13 136.008l6.808-6.172" stroke-width="1.2" stroke="#00f" stroke-miterlimit="10" fill="none"/><path d="M257.938 129.836l6.812-6.172" stroke-width="1.2" stroke="#000" stroke-miterlimit="10" fill="none"/><path d="M248.13 130.508h7v11h-7zm0 0" fill="#fff"/><use xlink:href="#a" x="248.129" y="139.171" fill="#00f"/><path d="M109.137 157.27l-1.942-8.985" stroke-width="1.2" stroke="#00f" stroke-miterlimit="10" fill="none"/><path d="M107.195 148.285l-1.937-8.984" stroke-width="1.2" stroke="#000" stroke-miterlimit="10" fill="none"/><path d="M102.137 151.77h14v11h-14zm0 0" fill="#fff"/><g fill="#00f"><use xlink:href="#a" x="102.137" y="160.433"/><use xlink:href="#b" x="109.114" y="160.433"/></g><path d="M106.707 140.902l6.813-6.172" stroke-width="1.2" stroke="#000" stroke-miterlimit="10" fill="none"/><path d="M113.52 134.73l6.808-6.17" stroke-width="1.2" stroke="#f00" stroke-miterlimit="10" fill="none"/><path d="M103.805 137.7l6.808-6.173" stroke-width="1.2" stroke="#000" stroke-miterlimit="10" fill="none"/><path d="M110.613 131.527l6.813-6.172" stroke-width="1.2" stroke="#f00" stroke-miterlimit="10" fill="none"/><path d="M105.258 139.3l-17.504-5.624" stroke-width="1.2" stroke="#000" stroke-miterlimit="10" fill="none"/><path d="M114.88 121.457h8v11h-8zm0 0" fill="#fff"/><use xlink:href="#c" x="114.879" y="130.12" fill="#f00"/><path d="M87.754 133.676l-3.88-17.97M83.137 132.793l-3.102-14.375M74.133 146.023l13.62-12.347M83.875 115.707l-17.504-5.62M66.37 110.086L52.75 122.43M67.914 114.523l-10.894 9.875M52.75 122.43l3.883 17.968M52.75 122.43L44 119.617" stroke-width="1.2" stroke="#000" stroke-miterlimit="10" fill="none"/><path d="M44 119.617l-8.75-2.812" stroke-width="1.2" stroke="#f00" stroke-miterlimit="10" fill="none"/><path d="M56.633 140.398l17.5 5.625M59.707 136.844l14 4.496" stroke-width="1.2" stroke="#000" stroke-miterlimit="10" fill="none"/><path d="M20.25 111.305h15v11h-15zm0 0" fill="#fff"/><g fill="#f00"><use xlink:href="#b" x="20.25" y="119.968"/><use xlink:href="#c" x="27.265" y="119.968"/></g></g></svg>
